X:1
T:Table For composing
T:Musical Dice Game
T:Nikolaus Simrock W. A. Mozart (alleged) 
C:W. A. Mozart (alleged)
%%score { 1 | ( 2 3 ) }
L:1/8
M:3/8
K:C
V:1 treble nm="Piano" snm="Pno."
V:2 bass 
V:3 bass 
V:1
 fdg | A^F/G/B/g/ | gce | g Td2 | [GBdg]2 z | Gce | e/c/e/g/c'/g/ | c2 z | [ce][Bd] z | %9
 B/A/B/c/d/B/ | e/c/B/A/G/^F/ | [Ec][Ec][Ec] | (cGE) | c2 z | eg/e/c | (a^fd) | c/G/c/e/G/c/ | %17
 (Gce) | e/c/eg | gb/d'/d | c/e/g/d/A/^f/ | ecG | f/e/d/e/f/g/ | [GBdg]2 z | D/^F/A/d/^f/a/ | %25
 [ce][ce][ce] | f/e/f/d/c/B/ | ^f/d/A/a/f/d/ | B/d/g/d/B | [GBdg]2 z | e/c/Ge | Gcf | [GBdg]2 z | %33
 e/c/d/B/G | Ad^f | A/e/d/g/^f/a/ | g/b/g/d/B | cGe | gGG | c/B/c/e/G/c/ | c/B/c/e/G | %41
 B/c/d/B/A/G/ | gf/e/d/c/ | Af/d/A/B/ | c/B/c/G/E/C/ | gb/g/d/B/ | gg/d/b | ec/e/g/c'/ | (eBG) | %49
 ce/c/G | c/G/e/c/g/e/ | (d/^c/)d/f/G/B/ | [ce][ce]/[df]/[eg] | [Ec][Ec][Ec] | gbd | d/B/G z | %56
 ecG | gec | gce | gf/e/d/c/ | ce/c/g | e/c/B/G/A/^F/ | e/c/B/c/G | e/g/c'/g/e/c/ | d/A/d^f | faf | %66
 c/B/c/e/G/c/ | gb/a/d/g/ | (gfc) | ^fa/f/d/f/ | g/b/d'/b/g | f/e/d/c/B/d/ | gec | c'/b/c'/g/e/c/ | %74
 [d^f][df][df] | c'/b/c'/g/e/c/ | g/b/gd | cC z | c2 z | d!turn!A^f | [GBdg]2 z | d/B/G g | c2 z | %83
 c/G/e/c/g/e/ | ceG | dd/g/b | gce | g/d/g/b/g/d/ | f/e/dg | ^f/a/d'/a/f/a/ | [GBdg]2 z | %91
 [Bd]g/b/d | c2 z | [GBdg]2 z | gec | ecG | g/^f/g/d/B/G/ | cGe | ^fad | [GBdg]2 z | %100
 e/d/e/g/c'/g/ | ^f/d/Af | c/e/c/G/E | e/d/e/g/c'/g/ | ^fa/f/d/f/ | Ad/c/B/A/ | [GBdg]2 z | %107
 (egc') | d/f/d/f/B/d/ | [Bd]/[Ac]/[Ac]/[GB]/[GB]/[^FA]/ | c2 z | ecG | fdB | [Bd][Bd][Bd] | %114
 A/G/e/c/g/e/ | d/f/a/f/d/B/ | d/A/d/^f/a/f/ | e/a/g/b/^f/a/ | e/c/g/e/c'/g/ | d'a/^f/d/A/ | %120
 gb/g/d | g/^f/g/b/d | [GBdg]2 z | [Ec][Ec][Ec] | g/e/d/B/G | c/G/c/e/g/[ce]/ | [GBdg]2 z | Bdg | %128
 a/g/^f/g/d | [Ec][Ec][Ec] | c2 z | [ce][Bd]/[GB]/G | dg/d/B/d/ | A/e/[Bd]/[Ac]/[GB]/[^FA]/ | %134
 ^ff/d/a | c'/b/c'/g/e/c/ | cGe | [Ad^f] Tg2 | g/b/g/b/d | cc/d/^f | d/e/f/d/c/c/ | cGe | gd/B/G | %143
 gce | d/f/A/d/B/d/ | [^Fd][d^f][fa] | e/c'/b/g/a/^f/ | c'/b/c'/g/e/c/ | f/d/AB | [Gce] Te2 | %150
 c2 z | gf/e/d/c/ | d/A/^f/d/a/f/ | d/^c/d/^f/a/f/ | g/b/g/d/B/G/ | c/G/e/c/g | e/d/e/g/c'/g/ | %157
 Bd/B/A/G/ | e/g/d/c/B/A/ | c/B/c/e/G/c/ | [^Fd][Fd][Fd] | e/d/e/g/c'/g/ | g/^f/g/d/B/G/ | d G2 | %164
 (dBG) | c/b/g/d/B | cc/d/e | gf/e/d/c/ | e/g/d/g/A/^f/ | c2 z | B/c/d/e/f/d/ | c2 z | %172
 f/a/ G B/d/ | Gce | e/c/B/d/g | a/g/b/g/d/g/ |] %176
V:2
 F,D,G, | [B,,G,]2 z | [C,E,]2 z | G,,/B,,/G,B,, | G,,B,/G,/^F,/E,/ | [C,E,]2 z | [C,G,]2 z | %7
 C,G,,C,, | G,2 G,, | G,2 z | C,D,D,, | C,C,C, | [E,G,]2 z | C,G,,C,, | [C,G,]2 [C,E,] | %15
 [D,^F,]2 [C,F,] | [E,G,]2 z | [C,E,]2 [C,G,] | [C,G,]2 [C,E,] | D,2 z | C,D,D,, | C,2 z | %22
 F,/E,/D,/E,/F,/G,/ | G,,B,/G,/^F,/E,/ | D,2 C, | C,/E,/G,/E,/C/C,/ | [G,B,]2 z | [C,A,]2 z | %28
 G,2 G,, | G,,B,/G,/^F,/E,/ | [C,G,]2 [C,G,] | [C,E,]2 z | G,,B,/G,/^F,/E,/ | G,2 z | %34
 [D,^F,]2 [C,A,] | C,D,D,, | [B,,D,]2 z | [C,E,]/G,/[C,E,]/G,/[C,E,]/G,/ | B,,/D,/G,/D,/B,,/G,,/ | %39
 [C,E,]2 z | [C,E,]2 z | G,,2 z | [C,E,]2 z | F,2 G, | [E,G,]2 z | [B,,D,]2 z | [B,,D,]2 z | %47
 [C,G,]2 [C,E,] | [C,E,]/G,/[C,E,]/A,/[C,E,]/G,/ | [E,G,]2 z | [C,E,]2 z | F,2 G, | C,2 z | %53
 C,C,C, | [B,,D,]2 z | [G,,G,]2 G, | [C,E,]/G,/[C,E,]/G,/[C,E,]/G,/ | %57
 [C,E,]/G,/[C,E,]/G,/[C,E,]/G,/ | [C,E,]/G,/[C,E,]/A,/[C,E,]/G,/ | [C,E,]2 z | [E,G,]2 z | %61
 C,D,D,, | C,2 z | [C,G,]2 [C,G,] | [D,^F,]2 z | A,^F,D, | [B,,E,]2 [E,G,] | B,,2 z | [C,E,]2 z | %69
 D,2 C, | [B,,D,]2 [B,,D,] | F,2 G, | [C,E,]/G,/[C,E,]/G,/[C,E,]/G,/ | [C,E,]2 z | C,C,C, | %75
 [C,E,]2 [C,G,] | [B,,D,]2 [B,,G,] | C,2 C,, | C,G,,C,, | C,2 z | G,,B,/G,/^F,/E,/ | %81
 [B,,G,]2 [B,,D,] | C,G,,C,, | [C,E,]2 z | [E,G,]2 z | [B,,G,]2 z | [C,E,]2 [C,G,] | %87
 [B,,D,]2 [B,,D,] | F,/E,/D,G, | [C,A,]2 [C,A,] | G,,B,/G,/^F,/E,/ | [G,,G,]2 G, | C,G,,C,, | %93
 G,,B,/G,/^F,/E,/ | [C,E,]2 z | C,2 z | [B,,D,]2 [B,,G,] | [C,E,]/G,/[C,E,]/G,/[C,E,]/G,/ | %98
 [C,A,]2 [C,A,] | G,,B,/G,/^F,/E,/ | [C,G,]2 [C,E,] | [C,A,]2 [C,A,] | [E,G,]2 z | C,2 z | C,2 z | %105
 C,D,D,, | G,,B,/G,/^F,/E,/ | [C,G,]2 [C,E,] | [F,A,]2 [G,D] | C,D,D,, | C,G,,C,, | %111
 [C,E,]/G,/[C,E,]/G,/[C,E,]/G,/ | [G,B,]2 z | G,G,G, | [C,E,]2 z | F,2 G, | [D,^F,]2 z | C,D,D,, | %118
 [C,E,]2 z | [D,^F,]2 [C,F,] | [B,,G,]2 z | [B,,D,][B,,D,][B,,G,] | G,,B,/G,/^F,/E,/ | C,C,C, | %124
 G,G,, z | E,2 E,/C,/ | G,,B,/G,/^F,/E,/ | G,,2 z | [B,,D,][B,,D,][B,,G,] | C,C,C, | C,G,,C,, | %131
 G,G,, z | [B,,G,]2 z | C,D,D,, | D,D,D, | [C,E,]2 z | [C,E,]/G,/[C,E,]/G,/[C,E,]/G,/ | %137
 D,,/D,/^C,/D,/=C,/D,/ | B,,2 z | [C,^F,][C,F,][C,A,] | [B,,G,]2 G,, | [C,E,]2 z | %142
 [B,,D,]2 [B,,D,] | [C,E,]/G,/[C,E,]/G,/[C,E,]/G,/ | F,2 G, | C,C,C, | C,D,D,, | [C,E,]2 z | %148
 F,2 G, | C,/B,,/C,/D,/E,/^F,/ | C,G,,C,, | [C,E,]2 z | C,2 z | C,2 z | [B,,D,]2 z | [E,G,]2 z | %156
 C,2 z | G,,2 z | C,D,D,, | [C,E,]2 [C,E,] | C,C,C, | [C,G,]2 [C,E,] | [B,,D,]2 z | %163
 G,/^F,/G,/D,/B,,/G,,/ | B,,2 z | [G,B,]2 z | [C,E,]2 z | [C,E,]2 [E,G,] | D,D,D,, | C,G,,C,, | %170
 [G,,G,]2 [B,,G,] | C,G,,C,, | F,2 G, | [C,E,]/G,/[C,E,]/G,/[C,E,]/G,/ | G,G,, z | %175
 [B,,D,]2 [B,,D,] |] %176
V:3
 x3 | x3 | x3 | x3 | G,,G,/F,/E,/D,/ | x3 | x3 | x3 | x3 | x3 | x3 | x3 | x3 | x3 | x3 | x3 | x3 | %17
 x3 | x3 | x3 | x3 | x3 | x3 | G,,G,/F,/E,/D,/ | x3 | x3 | x3 | x3 | x3 | G,,G,/F,/E,/D,/ | x3 | %31
 x3 | G,,G,/F,/E,/D,/ | x3 | x3 | x3 | x3 | x3 | x3 | x3 | x3 | x3 | x3 | x3 | x3 | x3 | x3 | x3 | %48
 x3 | x3 | x3 | x3 | x3 | x3 | x3 | x3 | x3 | x3 | x3 | x3 | x3 | x3 | x3 | x3 | x3 | D,D,C, | x3 | %67
 x3 | x3 | x3 | x3 | x3 | x3 | x3 | x3 | x3 | x3 | x3 | x3 | x3 | G,,G,/F,/E,/D,/ | x3 | x3 | x3 | %84
 x3 | x3 | x3 | x3 | x3 | x3 | G,,G,/F,/E,/D,/ | x3 | x3 | G,,G,/F,/E,/D,/ | x3 | x3 | x3 | x3 | %98
 x3 | G,,G,/F,/E,/D,/ | x3 | x3 | x3 | x3 | x3 | x3 | G,,G,/F,/E,/D,/ | x3 | x3 | x3 | x3 | x3 | %112
 x3 | x3 | x3 | x3 | x3 | x3 | x3 | x3 | x3 | x3 | G,,G,/F,/E,/D,/ | x3 | x3 | x3 | %126
 G,,G,/F,/E,/D,/ | x3 | x3 | x3 | x3 | x3 | x3 | x3 | C,C,C, | x3 | x3 | x3 | x3 | x3 | x3 | x3 | %142
 x3 | x3 | x3 | x3 | x3 | x3 | x3 | x3 | x3 | x3 | x3 | x3 | x3 | x3 | x3 | x3 | x3 | x3 | x3 | %161
 x3 | x3 | x3 | x3 | x3 | x3 | x3 | x3 | x3 | x3 | x3 | x3 | x3 | x3 | x3 |] %176

